dist/svgs/crypto-icons/icons/fct.svg

<?xml version="1.0" encoding="UTF-8" standalone="yes"?>
<svg xmlns="http://www.w3.org/2000/svg" xmlns:xlink="http://www.w3.org/1999/xlink" width="512px" height="512px" viewBox="0 0 384 384" version="1.1">
  <g id="surface1">
    <path style=" stroke:none;fill-rule:nonzero;fill:rgb(0%,0%,0%);fill-opacity:1;" d="M 61.269531 199.859375 C 168.859375 199.859375 222.136719 110.976562 222.136719 110.976562 L 228.894531 112.539062 L 225.257812 46.527344 L 186.597656 99.414062 L 191.730469 101.625 C 191.730469 101.625 146.25 169.195312 63.089844 169.195312 C 24.542969 169.195312 9.335938 147.257812 3.429688 127.734375 C 1.414062 138.25 0.265625 148.914062 0 159.617188 C 6.660156 181.058594 23.316406 199.859375 61.269531 199.859375 Z M 61.269531 199.859375 "/>
    <path style=" stroke:none;fill-rule:nonzero;fill:rgb(0%,0%,0%);fill-opacity:1;" d="M 44.375 244.300781 C 95.574219 256.511719 166.261719 235.726562 213.5625 194.402344 C 260.859375 153.078125 276.453125 115.394531 276.453125 115.394531 L 283.210938 116.953125 L 279.574219 50.945312 L 240.914062 103.832031 L 246.046875 106.039062 C 246.046875 106.039062 226.292969 149.441406 173.277344 184.265625 C 120.261719 219.089844 71.019531 220.347656 47.957031 216.121094 C 27.582031 212.382812 11.738281 198.285156 1.023438 185.199219 C 2.25 196.859375 4.503906 208.207031 7.695312 219.160156 C 16.390625 230.707031 28.257812 240.453125 44.375 244.300781 Z M 44.375 244.300781 "/>
    <path style=" stroke:none;fill-rule:nonzero;fill:rgb(0%,0%,0%);fill-opacity:1;" d="M 225.515625 245.855469 C 267.875 219.089844 298.28125 172.832031 298.28125 172.832031 L 303.480469 174.652344 L 300.105469 107.601562 L 261.441406 161.589844 L 267.355469 164.257812 C 267.355469 164.257812 249.164062 196.222656 196.667969 227.667969 C 144.171875 259.113281 109.835938 268.496094 68.027344 264.054688 C 43.253906 261.421875 25.226562 248.253906 13.082031 235.066406 C 17.042969 245.261719 21.851562 255.101562 27.46875 264.488281 C 39.960938 277.933594 56.058594 289 76.082031 291.339844 C 133.777344 298.09375 183.15625 272.628906 225.515625 245.855469 Z M 225.515625 245.855469 "/>
    <path style=" stroke:none;fill-rule:nonzero;fill:rgb(0%,0%,0%);fill-opacity:1;" d="M 254.816406 279.511719 C 298.480469 248.90625 328.691406 206.03125 328.691406 206.03125 L 336.292969 209.347656 L 332.980469 142.292969 L 293.800781 194.917969 L 300.621094 197.453125 C 300.621094 197.453125 269.4375 237.605469 231.820312 262.554688 C 194.199219 287.503906 151.320312 306.019531 107.851562 306.019531 C 82.664062 306.019531 61.316406 298.246094 44.765625 288.925781 C 52.226562 297.914062 60.472656 306.214844 69.40625 313.738281 C 83.894531 322.027344 99.730469 327.851562 115.648438 327.851562 C 171.003906 327.851562 211.15625 310.117188 254.816406 279.511719 Z M 254.816406 279.511719 "/>
    <path style=" stroke:none;fill-rule:nonzero;fill:rgb(0%,0%,0%);fill-opacity:1;" d="M 381.1875 127.871094 L 342.722656 180.886719 L 351.5625 184.523438 C 351.5625 184.523438 332.070312 233.128906 286.332031 272.628906 C 251.488281 302.71875 194.332031 336.5625 141.574219 336.5625 C 121.835938 336.5625 103.644531 332.75 88.445312 327.882812 C 99.445312 335.070312 111.148438 341.121094 123.371094 345.949219 C 134.492188 348.953125 145.953125 350.851562 157.164062 350.851562 C 190.433594 350.851562 233.570312 337.597656 290.226562 296.800781 C 346.878906 255.992188 376.507812 192.0625 376.507812 192.0625 L 384.566406 193.882812 Z M 381.1875 127.871094 "/>
    <path style=" stroke:none;fill-rule:nonzero;fill:rgb(0%,0%,0%);fill-opacity:1;" d="M 318.359375 284.96875 C 318.359375 284.96875 301.015625 309.921875 240.199219 337.792969 C 207.226562 352.910156 175.117188 355.582031 152.625 354.863281 C 167.925781 358.246094 183.582031 359.769531 199.25 359.410156 C 214.441406 357.949219 230.875 354.523438 247.605469 347.929688 C 294.007812 329.644531 329.859375 291.210938 329.859375 291.210938 L 332.78125 292.964844 L 334.144531 266.265625 L 315.242188 282.832031 Z M 318.359375 284.96875 "/>
  </g>
</svg>

<svg xmlns="http://www.w3.org/2000/svg" viewBox="0 0 384 384"><path d="M61.27 199.86c107.59 0 160.867-88.883 160.867-88.883l6.758 1.562-3.637-66.012-38.66 52.887 5.132 2.211s-45.48 67.57-128.64 67.57c-38.547 0-53.754-21.937-59.66-41.46A195.077 195.077 0 000 159.616c6.66 21.442 23.316 40.242 61.27 40.242zm0 0"/><path d="M44.375 244.3c51.2 12.212 121.887-8.573 169.188-49.898 47.296-41.324 62.89-79.007 62.89-79.007l6.758 1.558-3.637-66.008-38.66 52.887 5.133 2.207s-19.754 43.402-72.77 78.227C120.262 219.09 71.02 220.348 47.957 216.12c-20.375-3.738-36.219-17.836-46.934-30.922a193.804 193.804 0 006.672 33.961c8.696 11.547 20.563 21.293 36.68 25.14zm0 0"/><path d="M225.516 245.855c42.359-26.765 72.765-73.023 72.765-73.023l5.2 1.82-3.376-67.05-38.664 53.988 5.914 2.668s-18.19 31.965-70.687 63.41c-52.496 31.445-86.832 40.828-128.64 36.387-24.774-2.633-42.801-15.801-54.946-28.989a194.336 194.336 0 0014.387 29.422C39.96 277.934 56.059 289 76.082 291.34c57.695 6.754 107.074-18.711 149.434-45.485zm0 0"/><path d="M254.816 279.512c43.664-30.606 73.875-73.48 73.875-73.48l7.602 3.316-3.313-67.055-39.18 52.625 6.821 2.535s-31.183 40.152-68.8 65.102c-37.622 24.949-80.5 43.465-123.97 43.465-25.187 0-46.535-7.774-63.085-17.094a196.625 196.625 0 0024.64 24.812c14.489 8.29 30.324 14.114 46.242 14.114 55.356 0 95.508-17.735 139.168-48.34zm0 0"/><path d="M381.188 127.871l-38.465 53.016 8.84 3.636s-19.493 48.606-65.231 88.106c-34.844 30.09-92 63.933-144.758 63.933-19.738 0-37.93-3.812-53.129-8.68a194.451 194.451 0 0034.926 18.067c11.121 3.004 22.582 4.903 33.793 4.903 33.27 0 76.406-13.254 133.063-54.051 56.652-40.809 86.28-104.738 86.28-104.738l8.06 1.82zm0 0"/><path d="M318.36 284.969s-17.344 24.953-78.16 52.824c-32.973 15.117-65.083 17.789-87.575 17.07a195.25 195.25 0 0046.625 4.547c15.191-1.46 31.625-4.887 48.355-11.48 46.403-18.285 82.254-56.72 82.254-56.72l2.922 1.755 1.364-26.7-18.903 16.567zm0 0"/></svg>
